assets/images/freifunk-flensburg.svg

<?xml version="1.0" encoding="utf-8"?>
<!-- Generator: Adobe Illustrator 18.1.0, SVG Export Plug-In . SVG Version: 6.00 Build 0)  -->
<svg version="1.1" id="Ebene_1" xmlns="http://www.w3.org/2000/svg" xmlns:xlink="http://www.w3.org/1999/xlink" x="0px" y="0px"
	 viewBox="0 0 268.9 83.7" enable-background="new 0 0 268.9 83.7" xml:space="preserve">
<g>
	<path fill="#FFFFFF" d="M0,53.3c0-15.9,12.9-28.8,28.8-28.8c15.9,0,28.8,12.9,28.8,28.8S44.7,82,28.8,82C12.9,82,0,69.1,0,53.3
		L0,53.3z"/>
	<path fill="#FFFFFF" d="M27.2,41.9C27.2,18.7,45.8,0,68.9,0c23,0,41.7,18.7,41.7,41.9S91.9,83.7,68.9,83.7
		C45.8,83.7,27.2,65,27.2,41.9L27.2,41.9z"/>
	<path fill="#DC0267" d="M28.8,76.4C16,76.4,5.7,66,5.7,53.3S16,30.1,28.8,30.1c12.7,0,23.1,10.4,23.1,23.2S41.5,76.4,28.8,76.4z
		 M28.8,31.2c-12.1,0-22,9.9-22,22.1s9.9,22.1,22,22.1c12.1,0,22-9.9,22-22.1S40.9,31.2,28.8,31.2z"/>
	<polygon fill="#FAB313" points="57.6,48.1 67.2,38.5 76.2,38.5 69.8,44.9 82.5,44.9 82.5,51.3 69.8,51.3 76.2,57.7 67.2,57.7 
		57.6,48.1 	"/>
	<polygon fill="#FAB313" points="29.4,48.1 23.7,42.5 18.4,42.5 22.2,46.2 14.7,46.2 14.7,50 22.2,50 18.4,53.8 23.7,53.8 
		29.4,48.1 	"/>
	<path fill="#DC0267" d="M68.9,76.9c-19.3,0-34.9-15.7-34.9-35.1c0-19.3,15.7-35.1,34.9-35.1c19.3,0,34.9,15.7,34.9,35.1
		C103.8,61.2,88.1,76.9,68.9,76.9z M68.9,13.6c-15.5,0-28.1,12.7-28.1,28.3c0,15.6,12.6,28.3,28.1,28.3C84.4,70.1,97,57.5,97,41.9
		C97,26.3,84.4,13.6,68.9,13.6z"/>
	<path fill="#DC0267" d="M68.9,66.7c-13.6,0-24.7-11.1-24.7-24.8C44.1,28.2,55.2,17,68.9,17s24.7,11.1,24.7,24.8
		C93.6,55.6,82.5,66.7,68.9,66.7z M68.9,18.2c-13,0-23.6,10.6-23.6,23.7c0,13.1,10.6,23.7,23.6,23.7s23.6-10.6,23.6-23.7
		C92.5,28.8,81.9,18.2,68.9,18.2z"/>
</g>
<g>
	<path fill="#DC0267" d="M113.6,17.9h14.6v4.4h-9.4v5.4h8v4.4h-8v9h-5.3V17.9z"/>
	<path fill="#DC0267" d="M131.1,23.5h4.3l0.4,3.1h0.1c1.3-2.4,3.2-3.5,5-3.5c1,0,1.6,0.1,2.1,0.4l-0.9,4.5c-0.6-0.2-1.2-0.3-1.9-0.3
		c-1.3,0-3,0.9-3.9,3.2v10.2h-5.2V23.5z"/>
	<path fill="#DC0267" d="M152.2,23.1c5,0,7.5,3.7,7.5,8.5c0,0.9-0.1,1.8-0.2,2.2H149c0.5,2.7,2.2,3.8,4.6,3.8c1.3,0,2.5-0.4,3.8-1.2
		l1.7,3.2c-1.8,1.2-4.2,2-6.3,2c-5,0-8.9-3.4-8.9-9.2C143.9,26.6,148,23.1,152.2,23.1z M155.3,30.5c0-2-0.9-3.4-3-3.4
		c-1.6,0-3.1,1.1-3.4,3.4H155.3z"/>
	<path fill="#DC0267" d="M162.9,18.2c0-1.6,1.3-2.7,3-2.7c1.8,0,3,1.1,3,2.7s-1.2,2.7-3,2.7C164.2,20.9,162.9,19.8,162.9,18.2z
		 M163.4,23.5h5.2v17.6h-5.2V23.5z"/>
	<path fill="#DC0267" d="M183.1,20.2c-0.6-0.2-1.2-0.4-1.8-0.4c-1.3,0-2,0.7-2,2.5v1.1h3.2v4.1h-3.2v13.5h-5.2V27.6h-2.3v-3.9
		l2.3-0.2v-1c0-3.7,1.7-6.8,6.5-6.8c1.5,0,2.7,0.4,3.5,0.6L183.1,20.2z"/>
	<path fill="#DC0267" d="M185,23.5h5.2v10.3c0,2.5,0.7,3.3,2.2,3.3c1.3,0,2.1-0.6,3.1-2V23.5h5.2v17.6h-4.3l-0.4-2.5H196
		c-1.5,1.8-3.1,2.9-5.5,2.9c-3.8,0-5.5-2.7-5.5-7.1V23.5z"/>
	<path fill="#DC0267" d="M205.3,23.5h4.3l0.4,2.2h0.1c1.5-1.4,3.3-2.7,5.7-2.7c3.8,0,5.5,2.7,5.5,7.1v11H216V30.8
		c0-2.6-0.7-3.3-2.2-3.3c-1.3,0-2.1,0.6-3.3,1.7v11.9h-5.2V23.5z"/>
	<path fill="#DC0267" d="M225.7,16.2h5.1v14.3h0.1l5.6-7h5.7l-6.2,7.3l6.6,10.4H237l-4-6.9l-2.2,2.5v4.3h-5.1V16.2z"/>
</g>
<g>
	<path fill="#DC0267" d="M113.6,47.6h14.6V52l-9.4,0v5.4h8v4.4h-8v9h-5.3V47.6z"/>
	<path fill="#DC0267" d="M131.8,45.9h5.2v19.7c0,1.1,0.5,1.5,0.9,1.5c0.2,0,0.4,0,0.6-0.1l0.6,3.9c-0.6,0.2-1.5,0.4-2.6,0.4
		c-3.6,0-4.8-2.3-4.8-5.9V45.9z"/>
	<path fill="#DC0267" d="M149.3,52.7c5,0,7.5,3.7,7.5,8.5c0,0.9-0.1,1.8-0.2,2.2H146c0.5,2.7,2.2,3.8,4.6,3.8c1.3,0,2.5-0.4,3.8-1.2
		l1.7,3.2c-1.8,1.2-4.2,2-6.3,2c-5,0-8.9-3.4-8.9-9.2C141,56.3,145.1,52.7,149.3,52.7z M152.4,60.2c0-2-0.9-3.4-3-3.4
		c-1.6,0-3.1,1.1-3.4,3.4H152.4z"/>
	<path fill="#DC0267" d="M160.4,53.2h4.3l0.4,2.2h0.1c1.5-1.4,3.3-2.7,5.7-2.7c3.8,0,5.5,2.7,5.5,7.1v11h-5.2V60.5
		c0-2.6-0.7-3.3-2.2-3.3c-1.3,0-2.1,0.6-3.3,1.7v11.9h-5.2V53.2z"/>
	<path fill="#DC0267" d="M181.6,65.5c1.6,1.2,3.1,1.8,4.6,1.8c1.6,0,2.2-0.6,2.2-1.5c0-1.2-1.8-1.7-3.6-2.4
		c-2.1-0.8-4.7-2.3-4.7-5.2c0-3.3,2.7-5.5,6.8-5.5c2.7,0,4.7,1.1,6.2,2.2l-2.3,3.1c-1.3-0.9-2.5-1.5-3.7-1.5c-1.4,0-2,0.5-2,1.4
		c0,1.1,1.6,1.6,3.4,2.2c2.2,0.8,4.8,2.1,4.8,5.3c0,3.2-2.5,5.7-7.3,5.7c-2.3,0-5-1-6.8-2.5L181.6,65.5z"/>
	<path fill="#DC0267" d="M196.5,45.9h5.2V52l-0.1,2.7c1.4-1.2,3-2,4.7-2c4.3,0,6.9,3.5,6.9,8.9c0,6.1-3.6,9.6-7.4,9.6
		c-1.6,0-3.2-0.8-4.6-2.3H201l-0.4,1.8h-4.1V45.9z M204.6,67c1.8,0,3.3-1.6,3.3-5.2c0-3.2-1-4.8-3.1-4.8c-1.1,0-2,0.5-3,1.6v7.2
		C202.7,66.7,203.7,67,204.6,67z"/>
	<path fill="#DC0267" d="M216.7,53.2h5.2v10.3c0,2.5,0.7,3.3,2.2,3.3c1.3,0,2.1-0.6,3.1-2V53.2h5.2v17.6h-4.3l-0.4-2.5h-0.1
		c-1.5,1.8-3.1,2.9-5.5,2.9c-3.8,0-5.5-2.7-5.5-7.1V53.2z"/>
	<path fill="#DC0267" d="M237.1,53.2h4.3l0.4,3.1h0.1c1.3-2.4,3.2-3.5,5-3.5c1,0,1.6,0.1,2.1,0.4l-0.9,4.5c-0.6-0.2-1.2-0.3-1.9-0.3
		c-1.3,0-3,0.9-3.9,3.2v10.2h-5.2V53.2z"/>
	<path fill="#DC0267" d="M252.3,70.3v-0.1c-0.9-0.6-1.6-1.5-1.6-3c0-1.3,0.9-2.5,2-3.3v-0.1c-1.2-0.9-2.4-2.5-2.4-4.6
		c0-4.2,3.5-6.4,7.3-6.4c1,0,2,0.1,2.7,0.4h6.4V57h-2.8c0.3,0.5,0.6,1.4,0.6,2.3c0,4.1-3.1,5.9-6.9,5.9c-0.6,0-1.4-0.1-2.1-0.4
		c-0.5,0.4-0.6,0.7-0.6,1.3c0,0.9,0.7,1.3,2.7,1.3h2.8c4.3,0,6.7,1.3,6.7,4.5c0,3.7-3.8,6.3-9.8,6.3c-4.1,0-7.4-1.4-7.4-4.5
		C249.8,72.4,250.7,71.2,252.3,70.3z M258,75c2.3,0,4.1-1,4.1-2.2c0-1.1-1-1.4-2.7-1.4h-1.8c-1.2,0-1.9-0.1-2.5-0.2
		c-0.6,0.6-1,1.1-1,1.7C254.1,74.3,255.7,75,258,75z M260,59.1c0-1.8-1-2.8-2.4-2.8s-2.4,1-2.4,2.8c0,2,1,3,2.4,3S260,61.1,260,59.1
		z"/>
</g>
</svg>

<?xml version="1.0" encoding="UTF-8"?>
<svg width="247px" height="84px" viewBox="0 0 247 84" version="1.1" xmlns="http://www.w3.org/2000/svg" xmlns:xlink="http://www.w3.org/1999/xlink">
    <!-- Generator: Sketch 52.3 (67297) - http://www.bohemiancoding.com/sketch -->
    <title>freifunk-flensburg</title>
    <desc>Created with Sketch.</desc>
    <g id="Page-1" stroke="none" stroke-width="1" fill="none" fill-rule="evenodd">
        <g id="freifunk-flensburg">
            <g id="Group">
                <path d="M0,53.3 C0,37.4 12.9,24.5 28.8,24.5 C44.7,24.5 57.6,37.4 57.6,53.3 C57.6,69.2 44.7,82 28.8,82 C12.9,82 0,69.1 0,53.3 Z" id="Path" fill="#FFFFFF"></path>
                <path d="M27.2,41.9 C27.2,18.7 45.8,0 68.9,0 C91.9,0 110.6,18.7 110.6,41.9 C110.6,65.1 91.9,83.7 68.9,83.7 C45.8,83.7 27.2,65 27.2,41.9 Z" id="Path" fill="#FFFFFF"></path>
                <path d="M28.8,76.4 C16,76.4 5.7,66 5.7,53.3 C5.7,40.6 16,30.1 28.8,30.1 C41.5,30.1 51.9,40.5 51.9,53.3 C51.9,66.1 41.5,76.4 28.8,76.4 Z M28.8,31.2 C16.7,31.2 6.8,41.1 6.8,53.3 C6.8,65.5 16.7,75.4 28.8,75.4 C40.9,75.4 50.8,65.5 50.8,53.3 C50.8,41.1 40.9,31.2 28.8,31.2 Z" id="Shape" fill="#DC0267" fill-rule="nonzero"></path>
                <polygon id="Path" fill="#FAB313" points="57.6 48.1 67.2 38.5 76.2 38.5 69.8 44.9 82.5 44.9 82.5 51.3 69.8 51.3 76.2 57.7 67.2 57.7"></polygon>
                <polygon id="Path" fill="#FAB313" points="29.4 48.1 23.7 42.5 18.4 42.5 22.2 46.2 14.7 46.2 14.7 50 22.2 50 18.4 53.8 23.7 53.8"></polygon>
                <path d="M68.9,76.9 C49.6,76.9 34,61.2 34,41.8 C34,22.5 49.7,6.7 68.9,6.7 C88.2,6.7 103.8,22.4 103.8,41.8 C103.8,61.2 88.1,76.9 68.9,76.9 Z M68.9,13.6 C53.4,13.6 40.8,26.3 40.8,41.9 C40.8,57.5 53.4,70.2 68.9,70.2 C84.4,70.1 97,57.5 97,41.9 C97,26.3 84.4,13.6 68.9,13.6 Z" id="Shape" fill="#DC0267" fill-rule="nonzero"></path>
                <path d="M68.9,66.7 C55.3,66.7 44.2,55.6 44.2,41.9 C44.1,28.2 55.2,17 68.9,17 C82.6,17 93.6,28.1 93.6,41.8 C93.6,55.6 82.5,66.7 68.9,66.7 Z M68.9,18.2 C55.9,18.2 45.3,28.8 45.3,41.9 C45.3,55 55.9,65.6 68.9,65.6 C81.9,65.6 92.5,55 92.5,41.9 C92.5,28.8 81.9,18.2 68.9,18.2 Z" id="Shape" fill="#DC0267" fill-rule="nonzero"></path>
            </g>
            <text id="Freifunk-Herford" font-family="SourceSansPro-Bold, Source Sans Pro" font-size="35" font-weight="bold" line-spacing="28" letter-spacing="1" fill="#DC0267">
                <tspan x="111" y="48">Freifunk</tspan>
                <tspan x="111" y="76">Herfor</tspan>
                <tspan x="217.59" y="76">d</tspan>
            </text>
        </g>
    </g>
</svg>
